static/images/pieces/mono/synochess-rook.svg

<svg height="45" width="45" xmlns="http://www.w3.org/2000/svg"><g fill="#888" stroke="#888"><path d="m32.874189 14.826605h1.730589c1.699067 0 3.066908.944051 3.066908 2.116707v10.926739c0 1.172655-1.367841 2.116706-3.066908 2.116706h-24.209548c-1.6990663 0-4.0038137-.04076-3.9706649-1.212948.075313-2.663176 1.8722649-8.074802 4.4811319-9.119223 8.131771-3.255434 18.185472-1.363577 21.968492-4.827981z" stroke-linecap="round" stroke-linejoin="round" stroke-width="1.5"/><circle cx="22.5" cy="29.169834" r="12.330165" stroke-linecap="round" stroke-linejoin="round" stroke-width="2.96184"/><circle cx="22.5" cy="29.169834" r="9.518679" stroke-linecap="round" stroke-linejoin="round" stroke-width="2.28642"/><g stroke-width=".344977"><path d="m13.132345 28.318575h18.735315v1.798196h-18.735315z"/><path d="m16.511826 21.957981 13.247868 13.247869-1.271516 1.271516-13.247868-13.247869z"/><path d="m28.488178 21.957981-13.247868 13.247869 1.271516 1.271516 13.247868-13.247869z"/><path d="m23.399099 19.850015v18.735317h-1.798196v-18.735317z"/></g><path d="m21.833123 16.807355 2.024324-10.475417" stroke-width="1.66847"/><path d="m6.8415734 5.5472001c8.9078676 2.0196397 15.4165006 3.1825665 33.4691016 5.1946299.554784-1.79225-10.426664-5.9282448-16.307972-6.7346878-5.624515-.7712317-16.9207549.0978037-17.1611296 1.5400579z" stroke-linejoin="round" stroke-width="1.5"/></g></svg>

<?xml version="1.0" encoding="UTF-8" standalone="no"?>
<svg
   xmlns:dc="http://purl.org/dc/elements/1.1/"
   xmlns:cc="http://creativecommons.org/ns#"
   xmlns:rdf="http://www.w3.org/1999/02/22-rdf-syntax-ns#"
   xmlns:svg="http://www.w3.org/2000/svg"
   xmlns="http://www.w3.org/2000/svg"
   xmlns:sodipodi="http://sodipodi.sourceforge.net/DTD/sodipodi-0.dtd"
   xmlns:inkscape="http://www.inkscape.org/namespaces/inkscape"
   inkscape:version="0.92.5 (2060ec1f9f, 2020-04-08)"
   sodipodi:docname="synochess-rook.svg"
   id="svg2428"
   version="1.1"
   height="45"
   width="45">
  <path
     id="rect4664"
     style="fill:#888888;fill-opacity:1;stroke:#888888;stroke-width:1.5;stroke-linecap:round;stroke-linejoin:round;stroke-miterlimit:4;stroke-dasharray:none;stroke-opacity:1"
     d="m 32.874189,14.826605 h 1.730589 c 1.699067,0 3.066908,0.944051 3.066908,2.116707 v 10.926739 c 0,1.172655 -1.367841,2.116706 -3.066908,2.116706 H 10.39523 c -1.6990663,0 -4.0038137,-0.04076 -3.9706649,-1.212948 0.075313,-2.663176 1.8722649,-8.074802 4.4811319,-9.119223 8.131771,-3.255434 18.185472,-1.363577 21.968492,-4.827981 z"
     sodipodi:nodetypes="csssssssc" />
  <circle
     id="path979"
     style="display:inline;fill:#888888;fill-opacity:1;stroke:#888888;stroke-width:2.96184;stroke-linecap:round;stroke-linejoin:round;stroke-miterlimit:4;stroke-dasharray:none;stroke-opacity:1"
     r="12.330165"
     cy="29.169834"
     cx="22.5" />
  <circle
     style="display:inline;fill:#888888;stroke:#888888;stroke-width:2.28642;stroke-linecap:round;stroke-linejoin:round;stroke-opacity:1;fill-opacity:1"
     id="circle995"
     cx="22.5"
     cy="29.169834"
     r="9.5186787" />
  <path
     id="path1027"
     d="M 13.132345,28.318575 H 31.86766 v 1.798196 H 13.132345 Z"
     style="display:inline;fill:#888888;fill-opacity:1;stroke:#888888;stroke-width:0.344977px;stroke-linecap:butt;stroke-linejoin:miter;stroke-opacity:1" />
  <path
     style="display:inline;fill:#888888;fill-opacity:1;stroke:#888888;stroke-width:0.344977px;stroke-linecap:butt;stroke-linejoin:miter;stroke-opacity:1"
     d="M 16.511826,21.957981 29.759694,35.20585 28.488178,36.477366 15.24031,23.229497 Z"
     id="path1035" />
  <path
     id="path1037"
     d="M 28.488178,21.957981 15.24031,35.20585 16.511826,36.477366 29.759694,23.229497 Z"
     style="display:inline;fill:#888888;fill-opacity:1;stroke:#888888;stroke-width:0.344977px;stroke-linecap:butt;stroke-linejoin:miter;stroke-opacity:1" />
  <path
     style="display:inline;fill:#888888;fill-opacity:1;stroke:#888888;stroke-width:0.344977px;stroke-linecap:butt;stroke-linejoin:miter;stroke-opacity:1"
     d="M 23.399099,19.850015 V 38.585332 H 21.600903 V 19.850015 Z"
     id="path1039" />
  <path
     sodipodi:nodetypes="cc"
     style="fill:#888888;stroke:#888888;stroke-width:1.66847;stroke-linecap:butt;stroke-linejoin:miter;stroke-miterlimit:4;stroke-dasharray:none;stroke-opacity:1;fill-opacity:1"
     d="M 21.833123,16.807355 23.857447,6.331938"
     id="path4668" />
  <path
     style="fill:#888888;stroke:#888888;stroke-width:1.5;stroke-linecap:butt;stroke-linejoin:round;stroke-miterlimit:4;stroke-dasharray:none;stroke-opacity:1;fill-opacity:1"
     d="M 6.8415734,5.5472001 C 15.749441,7.5668398 22.258074,8.7297666 40.310675,10.74183 40.865459,8.94958 29.884011,4.8135852 24.002703,4.0071422 18.378188,3.2359105 7.0819481,4.1049459 6.8415734,5.5472001 Z"
     id="path4672"
     sodipodi:nodetypes="ccsc" />
  <metadata
     id="metadata2434">
    <rdf:RDF>
      <cc:Work
         rdf:about="">
        <dc:format>image/svg+xml</dc:format>
        <dc:type
           rdf:resource="http://purl.org/dc/dcmitype/StillImage" />
        <dc:title></dc:title>
      </cc:Work>
    </rdf:RDF>
  </metadata>
  <defs
     id="defs2432" />
  <sodipodi:namedview
     inkscape:current-layer="svg2428"
     inkscape:window-maximized="1"
     inkscape:window-y="27"
     inkscape:window-x="72"
     inkscape:cy="5.5627455"
     inkscape:cx="27.316459"
     inkscape:zoom="9.388889"
     showgrid="false"
     id="namedview2430"
     inkscape:window-height="1016"
     inkscape:window-width="1848"
     inkscape:pageshadow="2"
     inkscape:pageopacity="0"
     guidetolerance="10"
     gridtolerance="10"
     objecttolerance="10"
     borderopacity="1"
     bordercolor="#666666"
     pagecolor="#ffffff"
     inkscape:document-rotation="0" />
</svg>
